icons/modern/yellow-heart.svg

<svg width="32" height="32" viewBox="0 0 32 32" fill="none" xmlns="http://www.w3.org/2000/svg">
<path d="M15.0369 29.2015C15.5719 29.5 16.2155 29.4835 16.7474 29.1795C20.3304 27.1318 26.5568 22.4179 29.002 16.2948C32.5911 8.3224 24.1639 1.95834 18.3396 6.5356C17.732 7.01307 16.9681 7.55954 16.4424 8.07719C16.2047 8.31124 15.7859 8.33511 15.5391 8.11061C14.848 7.48177 13.7678 6.67511 13.0741 6.20577C8.10873 2.84639 -0.925885 7.27463 2.92796 16.7255C4.33972 20.9677 11.0672 26.9862 15.0369 29.2015Z" fill="url(#paint0_radial_7319_6105)"/>
<path d="M15.0369 29.2015C15.5719 29.5 16.2155 29.4835 16.7474 29.1795C20.3304 27.1318 26.5568 22.4179 29.002 16.2948C32.5911 8.3224 24.1639 1.95834 18.3396 6.5356C17.732 7.01307 16.9681 7.55954 16.4424 8.07719C16.2047 8.31124 15.7859 8.33511 15.5391 8.11061C14.848 7.48177 13.7678 6.67511 13.0741 6.20577C8.10873 2.84639 -0.925885 7.27463 2.92796 16.7255C4.33972 20.9677 11.0672 26.9862 15.0369 29.2015Z" fill="url(#paint1_radial_7319_6105)"/>
<path d="M15.0369 29.2015C15.5719 29.5 16.2155 29.4835 16.7474 29.1795C20.3304 27.1318 26.5568 22.4179 29.002 16.2948C32.5911 8.3224 24.1639 1.95834 18.3396 6.5356C17.732 7.01307 16.9681 7.55954 16.4424 8.07719C16.2047 8.31124 15.7859 8.33511 15.5391 8.11061C14.848 7.48177 13.7678 6.67511 13.0741 6.20577C8.10873 2.84639 -0.925885 7.27463 2.92796 16.7255C4.33972 20.9677 11.0672 26.9862 15.0369 29.2015Z" fill="url(#paint2_linear_7319_6105)"/>
<path d="M15.0369 29.2015C15.5719 29.5 16.2155 29.4835 16.7474 29.1795C20.3304 27.1318 26.5568 22.4179 29.002 16.2948C32.5911 8.3224 24.1639 1.95834 18.3396 6.5356C17.732 7.01307 16.9681 7.55954 16.4424 8.07719C16.2047 8.31124 15.7859 8.33511 15.5391 8.11061C14.848 7.48177 13.7678 6.67511 13.0741 6.20577C8.10873 2.84639 -0.925885 7.27463 2.92796 16.7255C4.33972 20.9677 11.0672 26.9862 15.0369 29.2015Z" fill="url(#paint3_radial_7319_6105)"/>
<path d="M15.0369 29.2015C15.5719 29.5 16.2155 29.4835 16.7474 29.1795C20.3304 27.1318 26.5568 22.4179 29.002 16.2948C32.5911 8.3224 24.1639 1.95834 18.3396 6.5356C17.732 7.01307 16.9681 7.55954 16.4424 8.07719C16.2047 8.31124 15.7859 8.33511 15.5391 8.11061C14.848 7.48177 13.7678 6.67511 13.0741 6.20577C8.10873 2.84639 -0.925885 7.27463 2.92796 16.7255C4.33972 20.9677 11.0672 26.9862 15.0369 29.2015Z" fill="url(#paint4_radial_7319_6105)"/>
<path d="M15.0369 29.2015C15.5719 29.5 16.2155 29.4835 16.7474 29.1795C20.3304 27.1318 26.5568 22.4179 29.002 16.2948C32.5911 8.3224 24.1639 1.95834 18.3396 6.5356C17.732 7.01307 16.9681 7.55954 16.4424 8.07719C16.2047 8.31124 15.7859 8.33511 15.5391 8.11061C14.848 7.48177 13.7678 6.67511 13.0741 6.20577C8.10873 2.84639 -0.925885 7.27463 2.92796 16.7255C4.33972 20.9677 11.0672 26.9862 15.0369 29.2015Z" fill="url(#paint5_radial_7319_6105)"/>
<path d="M15.0369 29.2015C15.5719 29.5 16.2155 29.4835 16.7474 29.1795C20.3304 27.1318 26.5568 22.4179 29.002 16.2948C32.5911 8.3224 24.1639 1.95834 18.3396 6.5356C17.732 7.01307 16.9681 7.55954 16.4424 8.07719C16.2047 8.31124 15.7859 8.33511 15.5391 8.11061C14.848 7.48177 13.7678 6.67511 13.0741 6.20577C8.10873 2.84639 -0.925885 7.27463 2.92796 16.7255C4.33972 20.9677 11.0672 26.9862 15.0369 29.2015Z" fill="url(#paint6_radial_7319_6105)"/>
<path d="M15.0369 29.2015C15.5719 29.5 16.2155 29.4835 16.7474 29.1795C20.3304 27.1318 26.5568 22.4179 29.002 16.2948C32.5911 8.3224 24.1639 1.95834 18.3396 6.5356C17.732 7.01307 16.9681 7.55954 16.4424 8.07719C16.2047 8.31124 15.7859 8.33511 15.5391 8.11061C14.848 7.48177 13.7678 6.67511 13.0741 6.20577C8.10873 2.84639 -0.925885 7.27463 2.92796 16.7255C4.33972 20.9677 11.0672 26.9862 15.0369 29.2015Z" fill="url(#paint7_radial_7319_6105)"/>
<path d="M15.0369 29.2015C15.5719 29.5 16.2155 29.4835 16.7474 29.1795C20.3304 27.1318 26.5568 22.4179 29.002 16.2948C32.5911 8.3224 24.1639 1.95834 18.3396 6.5356C17.732 7.01307 16.9681 7.55954 16.4424 8.07719C16.2047 8.31124 15.7859 8.33511 15.5391 8.11061C14.848 7.48177 13.7678 6.67511 13.0741 6.20577C8.10873 2.84639 -0.925885 7.27463 2.92796 16.7255C4.33972 20.9677 11.0672 26.9862 15.0369 29.2015Z" fill="url(#paint8_linear_7319_6105)" fill-opacity="0.25"/>
<path d="M15.5349 8.10679L15.5391 8.11061C15.7858 8.33511 16.2047 8.31124 16.4424 8.07719C16.8376 7.68801 17.3675 7.28254 17.8644 6.90235C18.0284 6.77685 18.1888 6.6541 18.3396 6.5356C24.1639 1.95834 32.5911 8.3224 29.002 16.2948C28.5144 17.5159 27.8763 18.681 27.1388 19.7801L15.5349 8.10679Z" fill="url(#paint9_radial_7319_6105)"/>
<path d="M15.5349 8.10679L15.5391 8.11061C15.7858 8.33511 16.2047 8.31124 16.4424 8.07719C16.8376 7.68801 17.3675 7.28254 17.8644 6.90235C18.0284 6.77685 18.1888 6.6541 18.3396 6.5356C24.1639 1.95834 32.5911 8.3224 29.002 16.2948C28.5144 17.5159 27.8763 18.681 27.1388 19.7801L15.5349 8.10679Z" fill="url(#paint10_radial_7319_6105)"/>
<g filter="url(#filter0_f_7319_6105)">
<path d="M16.1657 10.4781V19.2965C16.1657 20.3347 17.5654 20.6924 18.0319 19.765C19.4846 16.8771 20.6952 13.6913 19.71 11.4394C18.8844 9.55243 17.6549 9.3459 16.6935 9.66211C16.3531 9.77408 16.1657 10.1198 16.1657 10.4781Z" fill="url(#paint11_radial_7319_6105)"/>
</g>
<g filter="url(#filter1_f_7319_6105)">
<ellipse cx="9.26346" cy="6.28878" rx="1.51865" ry="0.249413" transform="rotate(-0.697201 9.26346 6.28878)" fill="url(#paint12_radial_7319_6105)"/>
</g>
<g filter="url(#filter2_f_7319_6105)">
<path d="M14.665 9.31438L14.9775 22.3769C8.1025 15.6894 6.26301 7.86813 8.89747 6.81438C11.532 5.76062 13.915 7.75188 14.665 9.31438Z" fill="url(#paint13_radial_7319_6105)"/>
</g>
<g filter="url(#filter3_f_7319_6105)">
<ellipse cx="23.2164" cy="12.4474" rx="5.32663" ry="5.7404" fill="url(#paint14_radial_7319_6105)"/>
</g>
<g filter="url(#filter4_f_7319_6105)">
<path d="M26.835 15.127C25.7725 17.6895 21.3975 23.0645 18.2725 25.127" stroke="#FFC037" stroke-linecap="round"/>
</g>
<g filter="url(#filter5_f_7319_6105)">
<path d="M4.52249 13.252C5.70999 18.752 11.6475 23.3145 14.7725 25.377" stroke="#FAA730" stroke-linecap="round"/>
</g>
<defs>
<filter id="filter0_f_7319_6105" x="13.1657" y="6.54077" width="9.90205" height="16.759" filterUnits="userSpaceOnUse" color-interpolation-filters="sRGB">
<feFlood flood-opacity="0" result="BackgroundImageFix"/>
<feBlend mode="normal" in="SourceGraphic" in2="BackgroundImageFix" result="shape"/>
<feGaussianBlur stdDeviation="1.5" result="effect1_foregroundBlur_7319_6105"/>
</filter>
<filter id="filter1_f_7319_6105" x="6.24491" y="4.53857" width="6.03709" height="3.50024" filterUnits="userSpaceOnUse" color-interpolation-filters="sRGB">
<feFlood flood-opacity="0" result="BackgroundImageFix"/>
<feBlend mode="normal" in="SourceGraphic" in2="BackgroundImageFix" result="shape"/>
<feGaussianBlur stdDeviation="0.75" result="effect1_foregroundBlur_7319_6105"/>
</filter>
<filter id="filter2_f_7319_6105" x="4.74796" y="3.51953" width="13.2295" height="21.8574" filterUnits="userSpaceOnUse" color-interpolation-filters="sRGB">
<feFlood flood-opacity="0" result="BackgroundImageFix"/>
<feBlend mode="normal" in="SourceGraphic" in2="BackgroundImageFix" result="shape"/>
<feGaussianBlur stdDeviation="1.5" result="effect1_foregroundBlur_7319_6105"/>
</filter>
<filter id="filter3_f_7319_6105" x="14.8898" y="3.70703" width="16.6533" height="17.4807" filterUnits="userSpaceOnUse" color-interpolation-filters="sRGB">
<feFlood flood-opacity="0" result="BackgroundImageFix"/>
<feBlend mode="normal" in="SourceGraphic" in2="BackgroundImageFix" result="shape"/>
<feGaussianBlur stdDeviation="1.5" result="effect1_foregroundBlur_7319_6105"/>
</filter>
<filter id="filter4_f_7319_6105" x="14.7724" y="11.6267" width="15.5627" height="17.0002" filterUnits="userSpaceOnUse" color-interpolation-filters="sRGB">
<feFlood flood-opacity="0" result="BackgroundImageFix"/>
<feBlend mode="normal" in="SourceGraphic" in2="BackgroundImageFix" result="shape"/>
<feGaussianBlur stdDeviation="1.5" result="effect1_foregroundBlur_7319_6105"/>
</filter>
<filter id="filter5_f_7319_6105" x="1.02238" y="9.75195" width="17.2502" height="19.125" filterUnits="userSpaceOnUse" color-interpolation-filters="sRGB">
<feFlood flood-opacity="0" result="BackgroundImageFix"/>
<feBlend mode="normal" in="SourceGraphic" in2="BackgroundImageFix" result="shape"/>
<feGaussianBlur stdDeviation="1.5" result="effect1_foregroundBlur_7319_6105"/>
</filter>
<radialGradient id="paint0_radial_7319_6105" cx="0" cy="0" r="1" gradientUnits="userSpaceOnUse" gradientTransform="translate(14.887 9.75201) rotate(90) scale(23.5 58.948)">
<stop offset="0.113615" stop-color="#FFD765"/>
<stop offset="1" stop-color="#FF8040"/>
</radialGradient>
<radialGradient id="paint1_radial_7319_6105" cx="0" cy="0" r="1" gradientUnits="userSpaceOnUse" gradientTransform="translate(24.71 8.81451) rotate(116.407) scale(10.1182 9.41358)">
<stop stop-color="#FFD765"/>
<stop offset="1" stop-color="#FFD765" stop-opacity="0"/>
</radialGradient>
<linearGradient id="paint2_linear_7319_6105" x1="13.6203" y1="16.3458" x2="4.62027" y2="26.0333" gradientUnits="userSpaceOnUse">
<stop offset="0.401885" stop-color="#ED7839" stop-opacity="0"/>
<stop offset="1" stop-color="#ED7839"/>
</linearGradient>
<radialGradient id="paint3_radial_7319_6105" cx="0" cy="0" r="1" gradientUnits="userSpaceOnUse" gradientTransform="translate(22.8447 11.3631) rotate(129.54) scale(22.7917 42.6912)">
<stop offset="0.797874" stop-color="#FF69CF" stop-opacity="0"/>
<stop offset="0.908039" stop-color="#FF69CF"/>
</radialGradient>
<radialGradient id="paint4_radial_7319_6105" cx="0" cy="0" r="1" gradientUnits="userSpaceOnUse" gradientTransform="translate(17.335 17.627) rotate(-154.151) scale(22.3624 27.2087)">
<stop offset="0.586471" stop-color="#9B7C23" stop-opacity="0"/>
<stop offset="1" stop-color="#9B7C23"/>
</radialGradient>
<radialGradient id="paint5_radial_7319_6105" cx="0" cy="0" r="1" gradientUnits="userSpaceOnUse" gradientTransform="translate(17.335 17.627) rotate(-152.113) scale(18.1729 16.0734)">
<stop offset="0.915063" stop-color="#9B7C23" stop-opacity="0"/>
<stop offset="1" stop-color="#9B7C23"/>
</radialGradient>
<radialGradient id="paint6_radial_7319_6105" cx="0" cy="0" r="1" gradientUnits="userSpaceOnUse" gradientTransform="translate(15.38 13.8155) rotate(90) scale(19.7992 26.4278)">
<stop offset="0.671096" stop-color="#FF69CF" stop-opacity="0"/>
<stop offset="0.933555" stop-color="#FF69CF"/>
</radialGradient>
<radialGradient id="paint7_radial_7319_6105" cx="0" cy="0" r="1" gradientUnits="userSpaceOnUse" gradientTransform="translate(10.2725 9.37702) rotate(44.2476) scale(23.5575 65.6093)">
<stop offset="0.776949" stop-color="#FF69CF" stop-opacity="0"/>
<stop offset="1" stop-color="#FF69CF"/>
</radialGradient>
<linearGradient id="paint8_linear_7319_6105" x1="16.5225" y1="13.002" x2="14.887" y2="29.9395" gradientUnits="userSpaceOnUse">
<stop offset="0.512322" stop-color="#FF7AF2" stop-opacity="0"/>
<stop offset="0.933555" stop-color="#FF7AF2"/>
</linearGradient>
<radialGradient id="paint9_radial_7319_6105" cx="0" cy="0" r="1" gradientUnits="userSpaceOnUse" gradientTransform="translate(21.8078 15.5557) rotate(-59.6724) scale(14.4818 13.582)">
<stop offset="0.671534" stop-color="#F9861D" stop-opacity="0"/>
<stop offset="1" stop-color="#FEA16F"/>
</radialGradient>
<radialGradient id="paint10_radial_7319_6105" cx="0" cy="0" r="1" gradientUnits="userSpaceOnUse" gradientTransform="translate(23.8703 12.9932) rotate(-130.441) scale(10.5024 10.6768)">
<stop offset="0.657254" stop-color="#C5A34C" stop-opacity="0"/>
<stop offset="0.906051" stop-color="#C5A34C"/>
</radialGradient>
<radialGradient id="paint11_radial_7319_6105" cx="0" cy="0" r="1" gradientUnits="userSpaceOnUse" gradientTransform="translate(18.4359 10.1894) rotate(90) scale(17.6875 5.77863)">
<stop offset="0.717703" stop-color="#FFBF2B"/>
<stop offset="1" stop-color="#FFBF2B" stop-opacity="0"/>
</radialGradient>
<radialGradient id="paint12_radial_7319_6105" cx="0" cy="0" r="1" gradientUnits="userSpaceOnUse" gradientTransform="translate(12.8229 6.14891) rotate(-175.801) scale(4.05458 1.67045)">
<stop stop-color="#FFE647"/>
<stop offset="1" stop-color="#FFE647" stop-opacity="0"/>
</radialGradient>
<radialGradient id="paint13_radial_7319_6105" cx="0" cy="0" r="1" gradientUnits="userSpaceOnUse" gradientTransform="translate(19.835 10.0019) rotate(-135.564) scale(13.4799 38.0188)">
<stop stop-color="#FFE647"/>
<stop offset="1" stop-color="#FFE647" stop-opacity="0"/>
</radialGradient>
<radialGradient id="paint14_radial_7319_6105" cx="0" cy="0" r="1" gradientUnits="userSpaceOnUse" gradientTransform="translate(25.8341 6.70703) rotate(126.781) scale(7.91299 12.734)">
<stop stop-color="#FFE647"/>
<stop offset="1" stop-color="#FFE647" stop-opacity="0"/>
</radialGradient>
</defs>
</svg>

<svg width="32" height="32" fill="none" xmlns="http://www.w3.org/2000/svg"><path d="M15.037 29.201a1.732 1.732 0 0 0 1.71-.021c3.583-2.048 9.81-6.762 12.255-12.885 3.59-7.973-4.838-14.337-10.662-9.76-.608.478-1.372 1.025-1.898 1.542-.237.234-.656.258-.903.034-.691-.63-1.771-1.436-2.465-1.905-4.965-3.36-14 1.069-10.146 10.52 1.412 4.242 8.14 10.26 12.109 12.476Z" fill="url(#a)"/><path d="M15.037 29.201a1.732 1.732 0 0 0 1.71-.021c3.583-2.048 9.81-6.762 12.255-12.885 3.59-7.973-4.838-14.337-10.662-9.76-.608.478-1.372 1.025-1.898 1.542-.237.234-.656.258-.903.034-.691-.63-1.771-1.436-2.465-1.905-4.965-3.36-14 1.069-10.146 10.52 1.412 4.242 8.14 10.26 12.109 12.476Z" fill="url(#b)"/><path d="M15.037 29.201a1.732 1.732 0 0 0 1.71-.021c3.583-2.048 9.81-6.762 12.255-12.885 3.59-7.973-4.838-14.337-10.662-9.76-.608.478-1.372 1.025-1.898 1.542-.237.234-.656.258-.903.034-.691-.63-1.771-1.436-2.465-1.905-4.965-3.36-14 1.069-10.146 10.52 1.412 4.242 8.14 10.26 12.109 12.476Z" fill="url(#c)"/><path d="M15.037 29.201a1.732 1.732 0 0 0 1.71-.021c3.583-2.048 9.81-6.762 12.255-12.885 3.59-7.973-4.838-14.337-10.662-9.76-.608.478-1.372 1.025-1.898 1.542-.237.234-.656.258-.903.034-.691-.63-1.771-1.436-2.465-1.905-4.965-3.36-14 1.069-10.146 10.52 1.412 4.242 8.14 10.26 12.109 12.476Z" fill="url(#d)"/><path d="M15.037 29.201a1.732 1.732 0 0 0 1.71-.021c3.583-2.048 9.81-6.762 12.255-12.885 3.59-7.973-4.838-14.337-10.662-9.76-.608.478-1.372 1.025-1.898 1.542-.237.234-.656.258-.903.034-.691-.63-1.771-1.436-2.465-1.905-4.965-3.36-14 1.069-10.146 10.52 1.412 4.242 8.14 10.26 12.109 12.476Z" fill="url(#e)"/><path d="M15.037 29.201a1.732 1.732 0 0 0 1.71-.021c3.583-2.048 9.81-6.762 12.255-12.885 3.59-7.973-4.838-14.337-10.662-9.76-.608.478-1.372 1.025-1.898 1.542-.237.234-.656.258-.903.034-.691-.63-1.771-1.436-2.465-1.905-4.965-3.36-14 1.069-10.146 10.52 1.412 4.242 8.14 10.26 12.109 12.476Z" fill="url(#f)"/><path d="M15.037 29.201a1.732 1.732 0 0 0 1.71-.021c3.583-2.048 9.81-6.762 12.255-12.885 3.59-7.973-4.838-14.337-10.662-9.76-.608.478-1.372 1.025-1.898 1.542-.237.234-.656.258-.903.034-.691-.63-1.771-1.436-2.465-1.905-4.965-3.36-14 1.069-10.146 10.52 1.412 4.242 8.14 10.26 12.109 12.476Z" fill="url(#g)"/><path d="M15.037 29.201a1.732 1.732 0 0 0 1.71-.021c3.583-2.048 9.81-6.762 12.255-12.885 3.59-7.973-4.838-14.337-10.662-9.76-.608.478-1.372 1.025-1.898 1.542-.237.234-.656.258-.903.034-.691-.63-1.771-1.436-2.465-1.905-4.965-3.36-14 1.069-10.146 10.52 1.412 4.242 8.14 10.26 12.109 12.476Z" fill="url(#h)"/><path d="M15.037 29.201a1.732 1.732 0 0 0 1.71-.021c3.583-2.048 9.81-6.762 12.255-12.885 3.59-7.973-4.838-14.337-10.662-9.76-.608.478-1.372 1.025-1.898 1.542-.237.234-.656.258-.903.034-.691-.63-1.771-1.436-2.465-1.905-4.965-3.36-14 1.069-10.146 10.52 1.412 4.242 8.14 10.26 12.109 12.476Z" fill="url(#i)" fill-opacity=".25"/><path d="m15.535 8.107.004.004c.247.224.666.2.903-.034.396-.389.925-.794 1.422-1.175.164-.125.325-.248.476-.366 5.824-4.578 14.251 1.786 10.662 9.759a18.786 18.786 0 0 1-1.863 3.485L15.535 8.107Z" fill="url(#j)"/><path d="m15.535 8.107.004.004c.247.224.666.2.903-.034.396-.389.925-.794 1.422-1.175.164-.125.325-.248.476-.366 5.824-4.578 14.251 1.786 10.662 9.759a18.786 18.786 0 0 1-1.863 3.485L15.535 8.107Z" fill="url(#k)"/><g filter="url(#l)"><path d="M16.166 10.478v8.819c0 1.038 1.4 1.395 1.866.468 1.453-2.888 2.663-6.074 1.678-8.326-.826-1.887-2.055-2.093-3.017-1.777-.34.112-.527.458-.527.816Z" fill="url(#m)"/></g><g filter="url(#n)"><ellipse cx="9.263" cy="6.289" rx="1.519" ry=".249" transform="rotate(-.697 9.263 6.289)" fill="url(#o)"/></g><g filter="url(#p)"><path d="m14.665 9.314.313 13.063C8.101 15.689 6.262 7.868 8.897 6.814c2.634-1.053 5.017.938 5.767 2.5Z" fill="url(#q)"/></g><g filter="url(#r)"><ellipse cx="23.216" cy="12.447" rx="5.327" ry="5.74" fill="url(#s)"/></g><g filter="url(#t)"><path d="M26.835 15.127c-1.063 2.562-5.438 7.937-8.563 10" stroke="#FFC037" stroke-linecap="round"/></g><g filter="url(#u)"><path d="M4.522 13.252c1.188 5.5 7.126 10.062 10.25 12.125" stroke="#FAA730" stroke-linecap="round"/></g><defs><radialGradient id="a" cx="0" cy="0" r="1" gradientUnits="userSpaceOnUse" gradientTransform="matrix(0 23.5 -58.948 0 14.887 9.752)"><stop offset=".114" stop-color="#FFD765"/><stop offset="1" stop-color="#FF8040"/></radialGradient><radialGradient id="b" cx="0" cy="0" r="1" gradientUnits="userSpaceOnUse" gradientTransform="rotate(116.407 9.623 12.067) scale(10.1182 9.41358)"><stop stop-color="#FFD765"/><stop offset="1" stop-color="#FFD765" stop-opacity="0"/></radialGradient><radialGradient id="d" cx="0" cy="0" r="1" gradientUnits="userSpaceOnUse" gradientTransform="rotate(129.54 8.745 11.064) scale(22.7917 42.6912)"><stop offset=".798" stop-color="#FF69CF" stop-opacity="0"/><stop offset=".908" stop-color="#FF69CF"/></radialGradient><radialGradient id="e" cx="0" cy="0" r="1" gradientUnits="userSpaceOnUse" gradientTransform="matrix(-20.12496 -9.75003 11.86302 -24.48637 17.335 17.627)"><stop offset=".586" stop-color="#9B7C23" stop-opacity="0"/><stop offset="1" stop-color="#9B7C23"/></radialGradient><radialGradient id="f" cx="0" cy="0" r="1" gradientUnits="userSpaceOnUse" gradientTransform="rotate(-152.113 10.856 6.662) scale(18.1729 16.0734)"><stop offset=".915" stop-color="#9B7C23" stop-opacity="0"/><stop offset="1" stop-color="#9B7C23"/></radialGradient><radialGradient id="g" cx="0" cy="0" r="1" gradientUnits="userSpaceOnUse" gradientTransform="matrix(0 19.7992 -26.4278 0 15.38 13.816)"><stop offset=".671" stop-color="#FF69CF" stop-opacity="0"/><stop offset=".934" stop-color="#FF69CF"/></radialGradient><radialGradient id="h" cx="0" cy="0" r="1" gradientUnits="userSpaceOnUse" gradientTransform="matrix(16.87497 16.4375 -45.77958 46.99799 10.273 9.377)"><stop offset=".777" stop-color="#FF69CF" stop-opacity="0"/><stop offset="1" stop-color="#FF69CF"/></radialGradient><radialGradient id="j" cx="0" cy="0" r="1" gradientUnits="userSpaceOnUse" gradientTransform="matrix(7.31249 -12.5 11.72334 6.85814 21.808 15.556)"><stop offset=".672" stop-color="#F9861D" stop-opacity="0"/><stop offset="1" stop-color="#FEA16F"/></radialGradient><radialGradient id="k" cx="0" cy="0" r="1" gradientUnits="userSpaceOnUse" gradientTransform="matrix(-6.81254 -7.9931 8.12584 -6.92566 23.87 12.993)"><stop offset=".657" stop-color="#C5A34C" stop-opacity="0"/><stop offset=".906" stop-color="#C5A34C"/></radialGradient><radialGradient id="m" cx="0" cy="0" r="1" gradientUnits="userSpaceOnUse" gradientTransform="matrix(0 17.6875 -5.77863 0 18.436 10.19)"><stop offset=".718" stop-color="#FFBF2B"/><stop offset="1" stop-color="#FFBF2B" stop-opacity="0"/></radialGradient><radialGradient id="o" cx="0" cy="0" r="1" gradientUnits="userSpaceOnUse" gradientTransform="matrix(-4.0437 -.29688 .12231 -1.66597 12.823 6.149)"><stop stop-color="#FFE647"/><stop offset="1" stop-color="#FFE647" stop-opacity="0"/></radialGradient><radialGradient id="q" cx="0" cy="0" r="1" gradientUnits="userSpaceOnUse" gradientTransform="matrix(-9.6251 -9.43744 26.61742 -27.14668 19.835 10.002)"><stop stop-color="#FFE647"/><stop offset="1" stop-color="#FFE647" stop-opacity="0"/></radialGradient><radialGradient id="s" cx="0" cy="0" r="1" gradientUnits="userSpaceOnUse" gradientTransform="matrix(-4.73797 6.33775 -10.19904 -7.62458 25.834 6.707)"><stop stop-color="#FFE647"/><stop offset="1" stop-color="#FFE647" stop-opacity="0"/></radialGradient><filter id="l" x="13.166" y="6.541" width="9.902" height="16.759" filterUnits="userSpaceOnUse" color-interpolation-filters="sRGB"><feFlood flood-opacity="0" result="BackgroundImageFix"/><feBlend in="SourceGraphic" in2="BackgroundImageFix" result="shape"/><feGaussianBlur stdDeviation="1.5" result="effect1_foregroundBlur_7319_6105"/></filter><filter id="n" x="6.245" y="4.539" width="6.037" height="3.5" filterUnits="userSpaceOnUse" color-interpolation-filters="sRGB"><feFlood flood-opacity="0" result="BackgroundImageFix"/><feBlend in="SourceGraphic" in2="BackgroundImageFix" result="shape"/><feGaussianBlur stdDeviation=".75" result="effect1_foregroundBlur_7319_6105"/></filter><filter id="p" x="4.748" y="3.52" width="13.229" height="21.857" filterUnits="userSpaceOnUse" color-interpolation-filters="sRGB"><feFlood flood-opacity="0" result="BackgroundImageFix"/><feBlend in="SourceGraphic" in2="BackgroundImageFix" result="shape"/><feGaussianBlur stdDeviation="1.5" result="effect1_foregroundBlur_7319_6105"/></filter><filter id="r" x="14.89" y="3.707" width="16.653" height="17.481" filterUnits="userSpaceOnUse" color-interpolation-filters="sRGB"><feFlood flood-opacity="0" result="BackgroundImageFix"/><feBlend in="SourceGraphic" in2="BackgroundImageFix" result="shape"/><feGaussianBlur stdDeviation="1.5" result="effect1_foregroundBlur_7319_6105"/></filter><filter id="t" x="14.772" y="11.627" width="15.563" height="17" filterUnits="userSpaceOnUse" color-interpolation-filters="sRGB"><feFlood flood-opacity="0" result="BackgroundImageFix"/><feBlend in="SourceGraphic" in2="BackgroundImageFix" result="shape"/><feGaussianBlur stdDeviation="1.5" result="effect1_foregroundBlur_7319_6105"/></filter><filter id="u" x="1.022" y="9.752" width="17.25" height="19.125" filterUnits="userSpaceOnUse" color-interpolation-filters="sRGB"><feFlood flood-opacity="0" result="BackgroundImageFix"/><feBlend in="SourceGraphic" in2="BackgroundImageFix" result="shape"/><feGaussianBlur stdDeviation="1.5" result="effect1_foregroundBlur_7319_6105"/></filter><linearGradient id="c" x1="13.62" y1="16.346" x2="4.62" y2="26.033" gradientUnits="userSpaceOnUse"><stop offset=".402" stop-color="#ED7839" stop-opacity="0"/><stop offset="1" stop-color="#ED7839"/></linearGradient><linearGradient id="i" x1="16.523" y1="13.002" x2="14.887" y2="29.939" gradientUnits="userSpaceOnUse"><stop offset=".512" stop-color="#FF7AF2" stop-opacity="0"/><stop offset=".934" stop-color="#FF7AF2"/></linearGradient></defs></svg>
